src/assets/icons/os/apple.svg

<svg width="24" height="24" viewBox="0 0 24 24" fill="currentColor" xmlns="http://www.w3.org/2000/svg">
    <path
        d="M16.5187 12.4551C16.5115 11.1442 17.1045 10.1547 18.3047 9.42599C17.6332 8.4651 16.6187 7.93643 15.2792 7.83284C14.0111 7.73282 12.6251 8.57226 12.1179 8.57226C11.5821 8.57226 10.3533 7.86856 9.38881 7.86856C7.39559 7.90071 5.27734 9.45814 5.27734 12.6266C5.27734 13.5625 5.4488 14.5305 5.79172 15.5271C6.24895 16.838 7.89925 20.0529 9.62099 19.9993C10.5212 19.9779 11.157 19.3599 12.3286 19.3599C13.4645 19.3599 14.0539 19.9993 15.0577 19.9993C16.7937 19.9743 18.2869 17.0524 18.7226 15.7378C16.3937 14.6412 16.5187 12.523 16.5187 12.4551ZM14.4969 6.58976C15.4721 5.4324 15.3828 4.37864 15.3542 4C14.4933 4.05001 13.4967 4.58582 12.9287 5.24666C12.3036 5.95393 11.9357 6.82909 12.0143 7.81498C12.9466 7.88642 13.7968 7.40776 14.4969 6.58976Z" />
</svg>

<svg xmlns="http://www.w3.org/2000/svg" width="24" height="24" fill="currentColor" viewBox="0 0 24 24"><path d="M16.519 12.455c-.007-1.31.586-2.3 1.786-3.029-.672-.96-1.686-1.49-3.026-1.593-1.268-.1-2.654.74-3.161.74-.536 0-1.765-.704-2.73-.704-1.992.032-4.11 1.59-4.11 4.758q-.001 1.404.514 2.9C6.249 16.838 7.899 20.053 9.62 20c.9-.021 1.536-.64 2.708-.64 1.135 0 1.725.64 2.729.64 1.736-.025 3.229-2.947 3.665-4.261-2.33-1.097-2.204-3.215-2.204-3.283M14.497 6.59c.975-1.158.886-2.211.857-2.59-.86.05-1.857.586-2.425 1.247-.625.707-.993 1.582-.915 2.568.933.071 1.783-.407 2.483-1.225"/></svg>
